X:154
T:Chalford Bottom. JJo8.154
B:J.Johnson Choice Collection Vol 8 1758
Z:vmp.Simon Wilson 2013 www.village-music-project.org.uk
M:2/4
L:1/8
Q:1/2=80
K:D
|:d2((3fed)|eAA2|d2((3fed)|eaa2|d2((3fed)|eAA2|((3Bcd) ((3edc)|d2D2:|
|:((3fga) ((3fga)|gbb2|((3efg) ((3efg)|faa2|((3Bcd) ed|Tc>BA2|((3efg) fd|Acd2:|
